X: 06074
T: PERCY'S REEL
C: Bob McQuillen 18 Nov 82
B: Bob's Note Book 6 #74
%R: reel
Z: 2021 John Chambers <jc:trillian.mit.edu>
M: C
L: 1/8
K: D
|:D2FG FEDE | FAde f2ef | gfgf e2ed | c2A2 AGFE |\
| D2FG FEDE | F2FA d4   | c2cB ABcd | e2d2 d4  :|
|:ABAB A2d2 | ABAd f2d2 | A2AB A2de | fefd e4   |\
| ABAB A2d2 | ABAd f2a2 | f2df geag | f2d2 d4  :|
%%begintext align
%% If you haven't
%% encountered the great bones player, Percy Danforth,
%% then you have a real treat in store for you. It's
%% always such fun when I get to play music with
%% you, Percy, and I hope you like this tune - With
%% Best Wishes always from your friend,
%% Bob McQuillen.
%%endtext

%%sep 1 1 500

%%sep 1 1 500

